svg/nginx.svg

<?xml version="1.0" encoding="UTF-8"?>
<svg xmlns="http://www.w3.org/2000/svg" xmlns:xlink="http://www.w3.org/1999/xlink" width="28.541" height="32" viewBox="0 0 28.541 32">
<path fill-rule="nonzero" fill="rgb(0%, 58.039216%, 21.960784%)" fill-opacity="1" d="M 0 15.902344 L 0 8.324219 C -0.015625 8.050781 0.136719 7.796875 0.382812 7.675781 L 13.457031 0.125 C 13.691406 -0.0195312 13.957031 -0.0507812 14.191406 0.0976562 L 27.324219 7.675781 C 27.550781 7.808594 27.6875 8.054688 27.675781 8.320312 L 27.675781 23.449219 C 27.6875 23.714844 27.550781 23.964844 27.324219 24.097656 L 16.042969 30.617188 L 14.25 31.644531 C 14.007812 31.792969 13.699219 31.792969 13.457031 31.644531 L 0.351562 24.09375 C 0.117188 23.949219 0 23.773438 0 23.476562 L 0 15.898438 Z M 0 15.902344 "/>
<path fill-rule="nonzero" fill="rgb(99.607843%, 99.607843%, 99.607843%)" fill-opacity="1" d="M 9.253906 13.082031 L 9.253906 21.914062 C 9.253906 22.910156 8.460938 23.792969 7.402344 23.765625 C 6.757812 23.734375 6.257812 23.46875 5.914062 22.914062 C 5.738281 22.648438 5.679688 22.355469 5.679688 22.03125 L 5.679688 9.761719 C 5.679688 8.9375 6.179688 8.351562 6.824219 8.085938 C 7.472656 7.824219 8.117188 7.882812 8.765625 8.085938 C 9.382812 8.265625 9.851562 8.644531 10.253906 9.117188 L 18.066406 18.488281 C 18.097656 18.515625 18.125 18.585938 18.183594 18.632812 L 18.183594 9.703125 C 18.183594 8.761719 18.828125 8.027344 19.742188 7.941406 C 20.886719 7.792969 21.652344 8.613281 21.769531 9.46875 L 21.769531 21.972656 C 21.769531 22.667969 21.445312 23.175781 20.859375 23.5 C 20.417969 23.734375 19.945312 23.792969 19.449219 23.765625 C 18.730469 23.714844 18.046875 23.425781 17.507812 22.941406 C 17.214844 22.679688 17.011719 22.355469 16.746094 22.0625 L 9.300781 13.160156 C 9.300781 13.128906 9.273438 13.097656 9.242188 13.058594 Z M 9.253906 13.082031 "/>
</svg>

<svg role="img" viewBox="0 0 28.541 32" height="32" width="28.541" xmlns="http://www.w3.org/2000/svg"><path d="M0 15.902V8.324a.68.68 0 0 1 .383-.648L13.457.125c.234-.145.5-.176.734-.027l13.133 7.578a.71.71 0 0 1 .352.644v15.13a.716.716 0 0 1-.352.648l-11.281 6.52-1.793 1.027a.762.762 0 0 1-.793 0L.352 24.094c-.235-.145-.352-.32-.352-.617v-7.579Zm0 0" fill="rgb(0%, 58.039216%, 21.960784%)"/><path d="M9.254 13.082v8.832c0 .996-.793 1.879-1.852 1.852-.644-.032-1.144-.297-1.488-.852-.176-.266-.234-.559-.234-.883V9.761c0-.823.5-1.41 1.144-1.675.649-.262 1.293-.203 1.942 0 .617.18 1.086.559 1.488 1.031l7.812 9.371c.032.028.059.098.118.145v-8.93c0-.941.644-1.676 1.558-1.762 1.145-.148 1.91.672 2.028 1.528v12.504c0 .695-.325 1.203-.91 1.527-.442.234-.915.293-1.41.266a3.247 3.247 0 0 1-1.942-.825c-.293-.261-.496-.586-.762-.878L9.301 13.16c0-.031-.028-.062-.059-.101Zm0 0" fill="rgb(99.607843%, 99.607843%, 99.607843%)"/></svg>
